src/pos-icons/chart-areaspline.svg

<svg height="24" viewBox="0 0 24 24" width="24" xmlns="http://www.w3.org/2000/svg"><path d="m17.45 15.18 4.55-7.87v11.69 2h-20v-18h2v12.54l5.5-9.54 6.5 3.78 4.24-7.33 1.73 1-5.23 9.05-6.51-3.75-5.92 10.25h2.26l4.39-7.56z"/></svg>

<?xml version="1.0" encoding="UTF-8"?><!DOCTYPE svg PUBLIC "-//W3C//DTD SVG 1.1//EN" "http://www.w3.org/Graphics/SVG/1.1/DTD/svg11.dtd"><svg xmlns="http://www.w3.org/2000/svg" xmlns:xlink="http://www.w3.org/1999/xlink" version="1.1" id="mdi-chart-areaspline" width="24" height="24" viewBox="0 0 24 24"><path d="M17.45,15.18L22,7.31V19L22,21H2V3H4V15.54L9.5,6L16,9.78L20.24,2.45L21.97,3.45L16.74,12.5L10.23,8.75L4.31,19H6.57L10.96,11.44L17.45,15.18Z" /></svg>
